www/assets/images/test_icons/flags/PA.svg

<svg fill="none" height="15" viewBox="0 0 21 15" width="21" xmlns="http://www.w3.org/2000/svg" xmlns:xlink="http://www.w3.org/1999/xlink"><mask id="a" height="15" maskUnits="userSpaceOnUse" width="21" x="0" y="0"><path d="m19 0h-17c-1.10457 0-2 .89543-2 2v11c0 1.1046.89543 2 2 2h17c1.1046 0 2-.8954 2-2v-11c0-1.10457-.8954-2-2-2z" fill="#fff"/></mask><g mask="url(#a)"><path d="m19 0h-17c-1.10457 0-2 .89543-2 2v11c0 1.1046.89543 2 2 2h17c1.1046 0 2-.8954 2-2v-11c0-1.10457-.8954-2-2-2z" fill="#fff"/><g clip-rule="evenodd" fill-rule="evenodd"><path d="m5.974 4.974c-.066.596-.254 1.026-.474 1.026s-.408-.43-.474-1.026c-.596-.066-1.026-.254-1.026-.474s.43-.408 1.026-.474c.066-.596.254-1.026.474-1.026s.408.43.474 1.026c.596.066 1.026.254 1.026.474s-.43.408-1.026.474z" fill="#005095"/><path d="m15.974 11.974c-.066.596-.254 1.026-.474 1.026s-.408-.43-.474-1.026c-.596-.066-1.026-.254-1.026-.474s.43-.408 1.026-.474c.066-.596.253-1.026.474-1.026.22 0 .408.43.474 1.026.596.066 1.026.253 1.026.474 0 .22-.43.408-1.026.474z" fill="#d4062e"/><path d="m0 8h10v7h-10z" fill="#005095"/><path d="m10 0h11v8h-11z" fill="#d4062e"/></g><path d="m19 .5h-17c-.82843 0-1.5.67157-1.5 1.5v11c0 .8284.67157 1.5 1.5 1.5h17c.8284 0 1.5-.6716 1.5-1.5v-11c0-.82843-.6716-1.5-1.5-1.5z" stroke="#000" stroke-opacity=".1"/></g></svg>

<svg width="21" height="15" viewBox="0 0 21 15" fill="none" xmlns="http://www.w3.org/2000/svg">
<mask id="mask0_3_74" style="mask-type:alpha" maskUnits="userSpaceOnUse" x="0" y="0" width="21" height="15">
<path d="M19 0H2C0.89543 0 0 0.89543 0 2V13C0 14.1046 0.89543 15 2 15H19C20.1046 15 21 14.1046 21 13V2C21 0.89543 20.1046 0 19 0Z" fill="white"/>
</mask>
<g mask="url(#mask0_3_74)">
<path d="M19 0H2C0.89543 0 0 0.89543 0 2V13C0 14.1046 0.89543 15 2 15H19C20.1046 15 21 14.1046 21 13V2C21 0.89543 20.1046 0 19 0Z" fill="white"/>
<path fill-rule="evenodd" clip-rule="evenodd" d="M5.974 4.974C5.908 5.57 5.72 6 5.5 6C5.28 6 5.092 5.57 5.026 4.974C4.43 4.908 4 4.72 4 4.5C4 4.28 4.43 4.092 5.026 4.026C5.092 3.43 5.28 3 5.5 3C5.72 3 5.908 3.43 5.974 4.026C6.57 4.092 7 4.28 7 4.5C7 4.72 6.57 4.908 5.974 4.974Z" fill="#005095"/>
<path fill-rule="evenodd" clip-rule="evenodd" d="M15.974 11.974C15.908 12.57 15.72 13 15.5 13C15.28 13 15.092 12.57 15.026 11.974C14.43 11.908 14 11.72 14 11.5C14 11.28 14.43 11.092 15.026 11.026C15.092 10.43 15.279 10 15.5 10C15.72 10 15.908 10.43 15.974 11.026C16.57 11.092 17 11.279 17 11.5C17 11.72 16.57 11.908 15.974 11.974Z" fill="#D4062E"/>
<path fill-rule="evenodd" clip-rule="evenodd" d="M0 8H10V15H0V8Z" fill="#005095"/>
<path fill-rule="evenodd" clip-rule="evenodd" d="M10 0H21V8H10V0Z" fill="#D4062E"/>
<path d="M19 0.5H2C1.17157 0.5 0.5 1.17157 0.5 2V13C0.5 13.8284 1.17157 14.5 2 14.5H19C19.8284 14.5 20.5 13.8284 20.5 13V2C20.5 1.17157 19.8284 0.5 19 0.5Z" stroke="black" stroke-opacity="0.1"/>
</g>
</svg>
